img/icons/svg/icon__whatsapp.svg

<svg width="22" height="22" viewBox="0 0 22 22" fill="none" xmlns="http://www.w3.org/2000/svg">
<g clip-path="url(#clip0)">
<path d="M11.0027 0.599976H10.9975C5.2632 0.599976 0.600098 5.26438 0.600098 11C0.600098 13.275 1.3333 15.3836 2.58 17.0957L1.2839 20.9593L5.2814 19.6814C6.9259 20.7708 8.8876 21.4 11.0027 21.4C16.737 21.4 21.4001 16.7343 21.4001 11C21.4001 5.26568 16.737 0.599976 11.0027 0.599976ZM17.0542 15.2861C16.8033 15.9946 15.8075 16.5822 15.0132 16.7538C14.4698 16.8695 13.76 16.9618 11.3706 15.9712C8.3143 14.705 6.3461 11.5993 6.1927 11.3978C6.0458 11.1963 4.9577 9.75328 4.9577 8.26088C4.9577 6.76848 5.7156 6.04178 6.0211 5.72978C6.272 5.47368 6.6867 5.35668 7.0845 5.35668C7.2132 5.35668 7.3289 5.36318 7.4329 5.36838C7.7384 5.38138 7.8918 5.39958 8.0933 5.88188C8.3442 6.48638 8.9552 7.97878 9.028 8.13218C9.1021 8.28558 9.1762 8.49358 9.0722 8.69508C8.9747 8.90308 8.8889 8.99537 8.7355 9.17218C8.5821 9.34898 8.4365 9.48418 8.2831 9.67397C8.1427 9.83908 7.9841 10.0159 8.1609 10.3214C8.3377 10.6204 8.9487 11.6175 9.8483 12.4183C11.0092 13.4518 11.9504 13.782 12.2871 13.9224C12.538 14.0264 12.837 14.0017 13.0203 13.8067C13.253 13.5558 13.5403 13.1398 13.8328 12.7303C14.0408 12.4365 14.3034 12.4001 14.579 12.5041C14.8598 12.6016 16.3457 13.3361 16.6512 13.4882C16.9567 13.6416 17.1582 13.7144 17.2323 13.8431C17.3051 13.9718 17.3051 14.5763 17.0542 15.2861Z" fill="white"/>
</g>
<defs>
<clipPath id="clip0">
<rect width="20.8" height="20.8" fill="white" transform="translate(0.600098 0.599976)"/>
</clipPath>
</defs>
</svg>

<svg width="22" height="22" viewBox="0 0 22 22" fill="none" xmlns="http://www.w3.org/2000/svg"><g clip-path="url(#clip0)"><path d="M11.003.6h-.005C5.263.6.6 5.264.6 11c0 2.275.733 4.384 1.98 6.096l-1.296 3.863 3.997-1.278a10.31 10.31 0 005.722 1.719C16.737 21.4 21.4 16.734 21.4 11S16.737.6 11.003.6zm6.051 14.686c-.25.709-1.246 1.296-2.04 1.468-.544.115-1.254.208-3.643-.783-3.057-1.266-5.025-4.372-5.178-4.573-.147-.202-1.235-1.645-1.235-3.137 0-1.493.758-2.22 1.063-2.531.251-.256.666-.373 1.064-.373.128 0 .244.006.348.011.305.013.459.032.66.514.251.604.862 2.097.935 2.25.074.154.148.362.044.563-.097.208-.183.3-.336.477-.154.177-.3.312-.453.502-.14.165-.299.342-.122.647.177.3.788 1.296 1.687 2.097 1.161 1.034 2.102 1.364 2.44 1.504.25.104.549.08.732-.115.233-.251.52-.667.813-1.077.208-.293.47-.33.746-.226.28.098 1.767.832 2.072.984.306.154.507.226.581.355.073.129.073.733-.178 1.443z" fill="#fff"/></g><defs><clipPath id="clip0"><path fill="#fff" transform="translate(.6 .6)" d="M0 0h20.8v20.8H0z"/></clipPath></defs></svg>
